src/icons/openid.svg

<?xml version="1.0" encoding="UTF-8" standalone="no"?>
<svg
   xmlns:svg="http://www.w3.org/2000/svg"
   xmlns="http://www.w3.org/2000/svg"
   version="1.0"
   width="320"
   height="120"
   viewBox="0 0 6440 8334"
   id="svg2114"
   xml:space="preserve"><defs
   id="defs2127">
    
    
    
    
    
    
    
    
  </defs>
  
<g
   transform="matrix(69.45,0,0,69.45,-8759.476,-989.3969)"
   id="g2189"><g
     transform="matrix(1.031807e-2,0,0,1.031807e-2,143.3621,-90.91537)"
     id="g2202"><path
       d="M -3436.8,14543.2 C -4284.8,14015.2 -5468.8,13687.2 -6764.8,13687.2 C -9372.8,13687.2 -11484.8,14991.2 -11484.8,16599.2 C -11484.8,18071.2 -9724.8,19279.2 -7444.8,19487.2 L -7444.8,18639.2 C -8980.8,18447.2 -10132.8,17607.2 -10132.8,16599.2 C -10132.8,15455.2 -8628.8,14519.2 -6764.8,14519.2 C -5836.8,14519.2 -4996.8,14751.2 -4388.8,15127.2 L -5252.8,15663.2 L -2556.8,15663.2 L -2556.8,13999.2 L -3436.8,14543.2 z "
       style="fill:#ccc;fill-opacity:1"
       id="path2204" /><path
       d="M -7444.8,12247.2 L -7444.8,18639.2 L -7444.8,19487.2 L -6092.8,18639.2 L -6092.8,11375.2 L -7444.8,12247.2 z "
       style="fill:#ff6200;fill-opacity:1"
       id="path2206" /></g><g
     transform="matrix(1.377521e-2,0,0,1.377521e-2,142.3208,-135.7131)"
     id="g2208"><path
       d="M -1124.8,15343.2 C -1060.8,15119.2 -956.8,14927.2 -820.8,14759.2 C -676.8,14591.2 -508.8,14455.2 -300.8,14359.2 C -92.8,14255.2 147.2,14207.2 419.2,14207.2 C 699.2,14207.2 939.2,14255.2 1147.2,14359.2 C 1347.2,14455.2 1523.2,14591.2 1659.2,14759.2 C 1795.2,14927.2 1899.2,15119.2 1963.2,15343.2 C 2035.2,15559.2 2067.2,15791.2 2067.2,16031.2 C 2067.2,16271.2 2035.2,16503.2 1963.2,16727.2 C 1899.2,16943.2 1795.2,17135.2 1659.2,17303.2 C 1523.2,17471.2 1347.2,17607.2 1147.2,17703.2 C 939.2,17807.2 699.2,17855.2 419.2,17855.2 C 147.2,17855.2 -92.8,17807.2 -300.8,17703.2 C -508.8,17607.2 -676.8,17471.2 -820.8,17303.2 C -956.8,17135.2 -1060.8,16943.2 -1124.8,16727.2 C -1196.8,16503.2 -1228.8,16271.2 -1228.8,16031.2 C -1228.8,15791.2 -1196.8,15559.2 -1124.8,15343.2 M -820.8,16599.2 C -772.8,16783.2 -692.8,16943.2 -580.8,17095.2 C -476.8,17239.2 -340.8,17351.2 -172.8,17447.2 C -4.8,17535.2 187.2,17575.2 419.2,17575.2 C 651.2,17575.2 851.2,17535.2 1019.2,17447.2 C 1187.2,17351.2 1315.2,17239.2 1427.2,17095.2 C 1531.2,16943.2 1611.2,16783.2 1659.2,16599.2 C 1707.2,16415.2 1739.2,16223.2 1739.2,16031.2 C 1739.2,15839.2 1707.2,15655.2 1659.2,15471.2 C 1611.2,15287.2 1531.2,15119.2 1427.2,14975.2 C 1315.2,14831.2 1187.2,14711.2 1019.2,14623.2 C 851.2,14535.2 651.2,14495.2 419.2,14495.2 C 187.2,14495.2 -4.8,14535.2 -172.8,14623.2 C -340.8,14711.2 -476.8,14831.2 -580.8,14975.2 C -692.8,15119.2 -772.8,15287.2 -820.8,15471.2 C -868.8,15655.2 -892.8,15839.2 -892.8,16031.2 C -892.8,16223.2 -868.8,16415.2 -820.8,16599.2 z "
       style="fill:#ff6200;fill-opacity:1"
       id="path2210" /><path
       d="M 2563.2,15255.2 L 2563.2,15735.2 L 2571.2,15735.2 C 2643.2,15559.2 2763.2,15423.2 2923.2,15327.2 C 3083.2,15231.2 3267.2,15183.2 3475.2,15183.2 C 3667.2,15183.2 3835.2,15215.2 3979.2,15287.2 C 4123.2,15359.2 4243.2,15455.2 4339.2,15583.2 C 4427.2,15703.2 4499.2,15847.2 4547.2,16007.2 C 4595.2,16167.2 4619.2,16343.2 4619.2,16519.2 C 4619.2,16703.2 4595.2,16871.2 4547.2,17031.2 C 4499.2,17191.2 4427.2,17335.2 4339.2,17455.2 C 4243.2,17583.2 4123.2,17679.2 3979.2,17751.2 C 3835.2,17815.2 3667.2,17855.2 3475.2,17855.2 C 3379.2,17855.2 3291.2,17839.2 3195.2,17823.2 C 3107.2,17799.2 3019.2,17759.2 2947.2,17719.2 C 2867.2,17671.2 2795.2,17615.2 2731.2,17543.2 C 2675.2,17479.2 2627.2,17399.2 2595.2,17303.2 L 2587.2,17303.2 L 2587.2,18711.2 L 2275.2,18711.2 L 2275.2,15255.2 L 2563.2,15255.2 M 4259.2,16135.2 C 4227.2,15999.2 4179.2,15887.2 4115.2,15783.2 C 4043.2,15687.2 3955.2,15599.2 3851.2,15535.2 C 3747.2,15471.2 3627.2,15447.2 3475.2,15447.2 C 3307.2,15447.2 3163.2,15471.2 3051.2,15535.2 C 2931.2,15591.2 2843.2,15671.2 2771.2,15767.2 C 2707.2,15863.2 2659.2,15983.2 2627.2,16111.2 C 2603.2,16239.2 2587.2,16375.2 2587.2,16519.2 C 2587.2,16655.2 2603.2,16783.2 2635.2,16911.2 C 2667.2,17039.2 2715.2,17159.2 2787.2,17255.2 C 2859.2,17359.2 2947.2,17439.2 3059.2,17503.2 C 3171.2,17567.2 3315.2,17599.2 3475.2,17599.2 C 3627.2,17599.2 3747.2,17567.2 3851.2,17503.2 C 3955.2,17439.2 4043.2,17359.2 4115.2,17255.2 C 4179.2,17159.2 4227.2,17039.2 4259.2,16911.2 C 4291.2,16783.2 4307.2,16655.2 4307.2,16519.2 C 4307.2,16391.2 4291.2,16263.2 4259.2,16135.2 z "
       style="fill:#ff6200;fill-opacity:1"
       id="path2212" /><path
       d="M 5139.2,16951.2 C 5171.2,17071.2 5219.2,17175.2 5291.2,17271.2 C 5355.2,17367.2 5443.2,17447.2 5547.2,17503.2 C 5651.2,17567.2 5779.2,17599.2 5923.2,17599.2 C 6147.2,17599.2 6323.2,17543.2 6451.2,17423.2 C 6579.2,17303.2 6667.2,17151.2 6715.2,16951.2 L 7027.2,16951.2 C 6963.2,17239.2 6843.2,17463.2 6667.2,17615.2 C 6491.2,17775.2 6243.2,17855.2 5923.2,17855.2 C 5723.2,17855.2 5555.2,17815.2 5411.2,17751.2 C 5259.2,17679.2 5147.2,17583.2 5051.2,17455.2 C 4963.2,17335.2 4891.2,17191.2 4851.2,17031.2 C 4803.2,16871.2 4787.2,16703.2 4787.2,16519.2 C 4787.2,16351.2 4803.2,16191.2 4851.2,16031.2 C 4891.2,15871.2 4963.2,15727.2 5051.2,15599.2 C 5147.2,15471.2 5259.2,15375.2 5411.2,15295.2 C 5555.2,15223.2 5723.2,15183.2 5923.2,15183.2 C 6123.2,15183.2 6299.2,15223.2 6443.2,15303.2 C 6587.2,15383.2 6707.2,15495.2 6795.2,15623.2 C 6883.2,15759.2 6947.2,15911.2 6987.2,16079.2 C 7027.2,16247.2 7043.2,16423.2 7035.2,16599.2 L 5091.2,16599.2 C 5091.2,16711.2 5107.2,16831.2 5139.2,16951.2 M 6667.2,16007.2 C 6627.2,15895.2 6571.2,15799.2 6507.2,15719.2 C 6435.2,15639.2 6355.2,15567.2 6259.2,15519.2 C 6155.2,15471.2 6051.2,15447.2 5923.2,15447.2 C 5795.2,15447.2 5683.2,15471.2 5587.2,15519.2 C 5491.2,15567.2 5403.2,15639.2 5339.2,15719.2 C 5267.2,15799.2 5211.2,15895.2 5171.2,16007.2 C 5131.2,16111.2 5107.2,16223.2 5091.2,16343.2 L 6723.2,16343.2 C 6723.2,16223.2 6699.2,16111.2 6667.2,16007.2 z "
       style="fill:#ff6200;fill-opacity:1"
       id="path2214" /><path
       d="M 7499.2,15255.2 L 7499.2,15687.2 L 7507.2,15687.2 C 7571.2,15535.2 7675.2,15415.2 7827.2,15319.2 C 7971.2,15231.2 8139.2,15183.2 8323.2,15183.2 C 8499.2,15183.2 8643.2,15207.2 8763.2,15247.2 C 8883.2,15295.2 8979.2,15359.2 9051.2,15447.2 C 9123.2,15527.2 9171.2,15631.2 9203.2,15751.2 C 9235.2,15871.2 9243.2,16007.2 9243.2,16159.2 L 9243.2,17783.2 L 8939.2,17783.2 L 8939.2,16207.2 C 8939.2,16095.2 8931.2,15999.2 8907.2,15903.2 C 8891.2,15815.2 8851.2,15735.2 8803.2,15663.2 C 8755.2,15591.2 8691.2,15543.2 8603.2,15503.2 C 8523.2,15463.2 8419.2,15447.2 8299.2,15447.2 C 8171.2,15447.2 8059.2,15463.2 7963.2,15511.2 C 7867.2,15551.2 7787.2,15615.2 7723.2,15687.2 C 7651.2,15767.2 7603.2,15855.2 7563.2,15967.2 C 7523.2,16071.2 7507.2,16183.2 7499.2,16311.2 L 7499.2,17783.2 L 7195.2,17783.2 L 7195.2,15255.2 L 7499.2,15255.2 z "
       style="fill:#ff6200;fill-opacity:1"
       id="path2216" /><path
       d="M 9835.2,14287.2 L 9835.2,17783.2 L 9507.2,17783.2 L 9507.2,14287.2 L 9835.2,14287.2 z "
       style="fill:#ff6200;fill-opacity:1"
       id="path2218" /><path
       d="M 11299.2,14287.2 C 11835.2,14295.2 12235.2,14447.2 12507.2,14735.2 C 12771.2,15023.2 12907.2,15455.2 12907.2,16031.2 C 12907.2,16615.2 12771.2,17047.2 12507.2,17335.2 C 12235.2,17623.2 11835.2,17767.2 11299.2,17783.2 L 10091.2,17783.2 L 10091.2,14287.2 L 11299.2,14287.2 M 11139.2,17495.2 C 11387.2,17495.2 11603.2,17471.2 11787.2,17415.2 C 11963.2,17359.2 12115.2,17279.2 12235.2,17159.2 C 12347.2,17039.2 12435.2,16887.2 12491.2,16703.2 C 12547.2,16519.2 12571.2,16295.2 12571.2,16031.2 C 12571.2,15775.2 12547.2,15551.2 12491.2,15367.2 C 12435.2,15175.2 12347.2,15023.2 12235.2,14911.2 C 12115.2,14791.2 11963.2,14703.2 11787.2,14655.2 C 11603.2,14599.2 11387.2,14567.2 11139.2,14567.2 L 10427.2,14567.2 L 10427.2,17495.2 L 11139.2,17495.2 z "
       style="fill:#ff6200;fill-opacity:1"
       id="path2220" /></g></g></svg>

<svg xmlns="http://www.w3.org/2000/svg" version="1.0" width="320" height="120" viewBox="0 0 6440 8334" xml:space="preserve"><path d="M-3436.8 14543.2c-848-528-2032-856-3328-856-2608 0-4720 1304-4720 2912 0 1472 1760 2680 4040 2888v-848c-1536-192-2688-1032-2688-2040 0-1144 1504-2080 3368-2080 928 0 1768 232 2376 608l-864 536h2696v-1664l-880 544z" style="fill:#ccc;fill-opacity:1" transform="matrix(.71659 0 0 .71659 1197.022 -7303.47)"/><path d="M-7444.8 12247.2v7240l1352-848v-7264l-1352 872z" style="fill:#ff6200;fill-opacity:1" transform="matrix(.71659 0 0 .71659 1197.022 -7303.47)"/><path d="M-1124.8 15343.2c64-224 168-416 304-584 144-168 312-304 520-400 208-104 448-152 720-152 280 0 520 48 728 152 200 96 376 232 512 400s240 360 304 584c72 216 104 448 104 688s-32 472-104 696c-64 216-168 408-304 576s-312 304-512 400c-208 104-448 152-728 152-272 0-512-48-720-152-208-96-376-232-520-400-136-168-240-360-304-576-72-224-104-456-104-696s32-472 104-688m304 1256c48 184 128 344 240 496 104 144 240 256 408 352 168 88 360 128 592 128s432-40 600-128c168-96 296-208 408-352 104-152 184-312 232-496s80-376 80-568-32-376-80-560-128-352-232-496c-112-144-240-264-408-352s-368-128-600-128-424 40-592 128-304 208-408 352c-112 144-192 312-240 496s-72 368-72 560 24 384 72 568zM2563.2 15255.2v480h8c72-176 192-312 352-408s344-144 552-144c192 0 360 32 504 104s264 168 360 296c88 120 160 264 208 424s72 336 72 512c0 184-24 352-72 512s-120 304-208 424c-96 128-216 224-360 296-144 64-312 104-504 104-96 0-184-16-280-32-88-24-176-64-248-104-80-48-152-104-216-176-56-64-104-144-136-240h-8v1408h-312v-3456h288m1696 880c-32-136-80-248-144-352-72-96-160-184-264-248s-224-88-376-88c-168 0-312 24-424 88-120 56-208 136-280 232-64 96-112 216-144 344-24 128-40 264-40 408 0 136 16 264 48 392s80 248 152 344c72 104 160 184 272 248s256 96 416 96c152 0 272-32 376-96s192-144 264-248c64-96 112-216 144-344s48-256 48-392c0-128-16-256-48-384zM5139.2 16951.2c32 120 80 224 152 320 64 96 152 176 256 232 104 64 232 96 376 96 224 0 400-56 528-176s216-272 264-472h312c-64 288-184 512-360 664-176 160-424 240-744 240-200 0-368-40-512-104-152-72-264-168-360-296-88-120-160-264-200-424-48-160-64-328-64-512 0-168 16-328 64-488 40-160 112-304 200-432 96-128 208-224 360-304 144-72 312-112 512-112s376 40 520 120 264 192 352 320c88 136 152 288 192 456s56 344 48 520h-1944c0 112 16 232 48 352m1528-944c-40-112-96-208-160-288-72-80-152-152-248-200-104-48-208-72-336-72s-240 24-336 72-184 120-248 200c-72 80-128 176-168 288-40 104-64 216-80 336h1632c0-120-24-232-56-336zM7499.2 15255.2v432h8c64-152 168-272 320-368 144-88 312-136 496-136 176 0 320 24 440 64 120 48 216 112 288 200 72 80 120 184 152 304s40 256 40 408v1624h-304v-1576c0-112-8-208-32-304-16-88-56-168-104-240s-112-120-200-160c-80-40-184-56-304-56-128 0-240 16-336 64-96 40-176 104-240 176-72 80-120 168-160 280-40 104-56 216-64 344v1472h-304v-2528h304zM9835.2 14287.2v3496h-328v-3496h328zM11299.2 14287.2c536 8 936 160 1208 448 264 288 400 720 400 1296 0 584-136 1016-400 1304-272 288-672 432-1208 448h-1208v-3496h1208m-160 3208c248 0 464-24 648-80 176-56 328-136 448-256 112-120 200-272 256-456s80-408 80-672c0-256-24-480-80-664-56-192-144-344-256-456-120-120-272-208-448-256-184-56-400-88-648-88h-712v2928h712z" style="fill:#ff6200;fill-opacity:1" transform="matrix(.95669 0 0 .95669 1124.704 -10414.672)"/></svg>
